X: 1
T:Fiddler's Dream
M:C|
L:1/8
Q:84
O:Smiley Bates
Z:<cfalt@trytel.com> www.trytel.com/~cfalt/Fiddle/CFtunes1.abc
K:A
AA c2d2|"A"e3f edcB|ABc2 cBA2|"D"A4-ABAG|FGA2 AGF2|!
"A"E4 ABcB|ce2f edc2|"E7"B4- B2Bc|B2BB c2d2|!
"A"e3f edcB|ABc2 cBA2|"D"A4-ABAG|FGA2 AGF2|!
"A"E4 ABcd|"E7"cBEF GABG|"A"A3B (3cBA FE|A2:|!
|A,B, CEDF|"A"E4- EFA2|{B}c4 cBAc|"D"d4 de(3dcB|"Bm"F4 F2=G2|!
"E7"G4- GAGF|E3c dcB2|"A"c4- cdcB|A2A,B, CEDF|!
E4- EFA2|{B}c4 cBAc|"D"d4 de(3dcB|"Bm"F4 F2=G2|!
"E7"G4- GAGF|E4 {cd}cBG2|"A"A2AB (3cBA FE|A2|]
